X:39
T:Julia Clifford's Slide
B:Terry "Cuz" Teahan "Sliabh Luachra on Parade" 1980
Z:Patrick Cavanagh
M:12/8
L:1/8
R:Slide
K:D
| fed B2d A2d F2B | A2F D2F E3 E2g | 
fed B2d A2d F2B | ABA F2E D3 D2g :| 
| fda afa baf afe | fdf a2f g3 f2e | 
fda afa baf afe | def A2B d3 d3 :|| 

